public/icons/icon/redo.svg

<svg width="30" height="30" viewBox="0 0 30 30" fill="none" xmlns="http://www.w3.org/2000/svg">
<path fill-rule="evenodd" clip-rule="evenodd" d="M20.2929 4.29289C20.6834 3.90237 21.3166 3.90237 21.7071 4.29289L25.7071 8.29289C26.0976 8.68342 26.0976 9.31658 25.7071 9.70711L21.7071 13.7071C21.3166 14.0976 20.6834 14.0976 20.2929 13.7071C19.9024 13.3166 19.9024 12.6834 20.2929 12.2929L22.5858 10H12C8.13401 10 5 13.134 5 17C5 20.866 8.13401 24 12 24H20C20.5523 24 21 24.4477 21 25C21 25.5523 20.5523 26 20 26H12C7.02944 26 3 21.9706 3 17C3 12.0294 7.02944 8 12 8H22.5858L20.2929 5.70711C19.9024 5.31658 19.9024 4.68342 20.2929 4.29289Z" fill="black"/>
</svg>

<svg xmlns="http://www.w3.org/2000/svg" width="30" height="30" fill="none"><path fill="#000" fill-rule="evenodd" d="M20.293 4.293a1 1 0 0 1 1.414 0l4 4a1 1 0 0 1 0 1.414l-4 4a1 1 0 0 1-1.414-1.414L22.586 10H12a7 7 0 1 0 0 14h8a1 1 0 1 1 0 2h-8a9 9 0 1 1 0-18h10.586l-2.293-2.293a1 1 0 0 1 0-1.414Z" clip-rule="evenodd"/></svg>
